clock-time-six-outline.svg

<svg fill="currentColor" viewBox="0 0 24 24"><path d="M12 20c4.4 0 8-3.6 8-8s-3.6-8-8-8-8 3.6-8 8 3.6 8 8 8m0-18c5.5 0 10 4.5 10 10s-4.5 10-10 10S2 17.5 2 12 6.5 2 12 2m.5 5v10H11V7z"/></svg>

<svg  viewBox="0 0 24 24" fill="currentColor"><path  d="M12 20C16.4 20 20 16.4 20 12S16.4 4 12 4 4 7.6 4 12 7.6 20 12 20M12 2C17.5 2 22 6.5 22 12S17.5 22 12 22C6.5 22 2 17.5 2 12C2 6.5 6.5 2 12 2M12.5 7V17H11V7H12.5Z"/></svg>
